svg/logos/logo-aetna.svg

<?xml version="1.0" encoding="UTF-8"?>
<svg width="103px" height="28px" viewBox="0 0 103 28" version="1.1" xmlns="http://www.w3.org/2000/svg" xmlns:xlink="http://www.w3.org/1999/xlink">
    <!-- Generator: Sketch 52.5 (67469) - http://www.bohemiancoding.com/sketch -->
    <title>logo-aetna</title>
    <desc>Created with Sketch.</desc>
    <g id="V2" stroke="none" stroke-width="1" fill="none" fill-rule="evenodd">
        <g id="home" transform="translate(-818.000000, -896.000000)" fill="#744593">
            <g id="logos" transform="translate(0.000000, 720.000000)">
                <g transform="translate(405.000000, 154.000000)" id="logo-aetna">
                    <g transform="translate(413.000000, 22.000000)">
                        <path d="M31.815026,14.5249351 C32.2042934,14.5166782 32.5932977,14.528664 32.9829597,14.4983001 C33.6978225,14.4424999 34.395978,14.3243738 35.0459848,14.0006259 C35.5287869,13.7601122 35.9191067,13.417853 36.174584,12.9292347 C36.4607133,12.3822859 36.5216227,11.794186 36.5021527,11.1881075 C36.4717638,10.2337769 35.8546454,9.44498264 34.9432414,9.19208371 C34.387427,9.03800048 33.8271398,9.02348442 33.2600118,9.10112533 C32.5512005,9.19820975 31.9365816,9.49212652 31.4370722,10.0116414 C30.9453245,10.5227662 30.6641942,11.1536152 30.4775195,11.8310754 C30.2559831,12.6349184 30.2050718,13.460469 30.1771824,14.2896152 C30.1717887,14.4538197 30.2316457,14.4889779 30.3734605,14.4920409 C30.8538947,14.5022954 31.3339341,14.5373203 31.815026,14.5249351 M2.2345189,11.0394844 C2.17176778,10.7659434 2.19084307,10.5023905 2.17466196,10.2428328 C2.12046184,9.36880666 2.08520545,8.4937151 2.03981942,7.61902307 C2.01653442,7.16915862 1.98996057,6.71929417 1.9589139,6.26982925 C1.95220466,6.17261165 1.97627899,6.1264 2.07139231,6.08911106 C2.98897936,5.73047134 3.94090193,5.50394102 4.90571676,5.32721807 C5.77160321,5.16847372 6.64525133,5.06606231 7.52192518,4.99721094 C8.70406673,4.90438811 9.8889709,4.89053793 11.0730857,4.93635006 C11.9725184,4.97124185 12.8673467,5.0681931 13.7495458,5.2626283 C14.6996266,5.47197907 15.6073471,5.78960095 16.4194281,6.34454031 C17.3068893,6.95115149 17.9429515,7.76524899 18.3589243,8.76312771 C18.7138562,9.6147805 18.8925061,10.5059862 18.9945918,11.4196985 C19.094441,12.3135677 19.0877318,13.2097008 19.078523,14.1061004 C19.0770759,14.2523263 19.1216726,14.2794939 19.2546734,14.2778958 C20.3280201,14.2657769 21.4004458,14.3062621 22.4730031,14.3440837 C22.5992947,14.3484785 22.7259809,14.355004 22.85122,14.3705855 C22.9560683,14.3836366 22.9955344,14.3411539 23.0051378,14.2400742 C23.0553914,13.7153655 23.1422168,13.1962502 23.2510117,12.6809969 C23.5431925,11.2954464 24.0008678,9.97688276 24.7972939,8.7969541 C25.2865421,8.07208371 25.8781391,7.44736076 26.5780048,6.92638098 C27.6375383,6.13758668 28.8309934,5.65922283 30.1016706,5.3593132 C31.3486681,5.06499691 32.6159249,4.96018835 33.8935744,4.94580547 C35.0645339,4.93275434 36.2278633,5.00413603 37.378695,5.23213127 C38.4519101,5.44481141 39.4793445,5.78573888 40.4167962,6.36971034 C41.9216389,7.30726088 42.822124,8.6548566 43.0878625,10.4278126 C43.2587507,11.568721 43.190869,12.6947139 42.8315959,13.7928732 C42.4982388,14.8115272 41.8988801,15.6434702 41.0610146,16.3022859 C40.1340873,17.0308851 39.0698178,17.4539815 37.9466124,17.7445688 C36.9357537,18.0061241 35.9055567,18.1407639 34.8653616,18.2120124 C33.3576247,18.315356 31.8498877,18.266614 30.3420192,18.2255962 C30.2620346,18.2234654 30.2228316,18.2227995 30.2223053,18.3209493 C30.2175694,19.2080266 30.3628047,20.0638078 30.7673323,20.8576628 C31.1872517,21.6817484 31.8169993,22.300079 32.6265808,22.7334297 C33.4636569,23.1816961 34.3654576,23.3779957 35.3005412,23.4467139 C37.0307355,23.5737627 38.6922587,23.2594702 40.3028707,22.6354131 C40.7835679,22.4491015 41.2487418,22.224702 41.6948404,21.9628804 C41.7956105,21.9036176 41.8383654,21.8875034 41.8456009,22.0427853 C41.899801,23.1886212 41.9637361,24.3339244 42.0253033,25.4792276 C42.0474043,25.8883405 42.066348,26.2977199 42.0985787,26.7060338 C42.1075243,26.8201646 42.0362222,26.8309517 41.9700507,26.8603834 C41.4742248,27.0806545 40.9585343,27.2405974 40.4338982,27.3719077 C39.460927,27.6154844 38.4734849,27.7674369 37.4768341,27.8714464 C36.2051045,28.0042216 34.9303491,28.0232656 33.6555938,27.9777199 C32.4162264,27.9333727 31.1855415,27.7928732 29.9772208,27.4950944 C28.8365187,27.2139624 27.7530424,26.791532 26.7732304,26.1260576 C25.8839274,25.5218435 25.1548568,24.758752 24.5858871,23.8382478 C23.8877316,22.7089256 23.48202,21.4690683 23.2212806,20.1735439 C23.096173,19.5520171 23.0114524,18.924098 22.9525164,18.2931158 C22.9427814,18.1892395 22.9077881,18.1713941 22.8172792,18.1667329 C21.7453796,18.1121313 20.6729539,18.086029 19.5998703,18.0781717 C19.4329287,18.0769731 19.2654608,18.0769731 19.0994401,18.061658 C18.9873563,18.0512704 18.9642029,18.0960171 18.9617033,18.1968304 C18.939997,19.0419577 18.9169751,19.8870849 18.8894804,20.732079 C18.8551448,21.7874892 18.883692,22.8428994 18.9065823,23.8976438 C18.9305251,24.9924737 18.9936709,26.0865046 19.1442999,27.1729446 C19.1894228,27.4989565 19.1873179,27.4933631 18.8544871,27.5002882 C17.5947288,27.5263905 16.3351022,27.5551562 15.0774488,27.6411872 C14.1890667,27.702048 13.2996321,27.7458625 12.4113815,27.8076556 C11.1489922,27.895551 9.88607672,27.9598744 8.62039857,27.9683976 C7.0300459,27.9791848 5.45876852,27.8559981 3.94511165,27.3119791 C2.9760871,26.9635938 2.1208565,26.4354226 1.44217097,25.6439648 C0.808608349,24.9049779 0.430917678,24.0354797 0.221352635,23.0870088 C0.0359934727,22.2474749 -0.027152303,21.3951562 0.0103405013,20.5383096 C0.0809848379,18.9228994 0.667845891,17.5513322 1.91392253,16.4987187 C2.72139914,15.8165974 3.65029981,15.3723263 4.64089917,15.0445831 C5.54993523,14.7437413 6.48291407,14.5559648 7.42944293,14.4278507 C8.56935574,14.2735011 9.71466225,14.2163691 10.8639154,14.201853 C11.2689692,14.1966592 11.6731022,14.2166354 12.0777613,14.2131729 C12.1398547,14.2126402 12.1944495,14.2232942 12.1955019,14.1250112 C12.2040529,13.305054 12.1918184,12.4870944 11.9771228,11.6881788 C11.8257045,11.1247163 11.5740422,10.6195843 11.1292592,10.2291158 C10.7493321,9.89564614 10.3003393,9.70960095 9.81832656,9.59507063 C9.06689183,9.41661641 8.30532746,9.41182212 7.5403427,9.46109679 C6.70997575,9.51463306 5.89815787,9.67244518 5.09831138,9.89884233 C4.17362043,10.1603976 3.27958149,10.5021241 2.42448244,10.9458625 C2.36686192,10.9758269 2.30805742,11.0033941 2.2345189,11.0394844 Z M68.5553782,16.9450247 C68.5371316,18.1100916 68.5702117,19.6224646 68.5965969,21.1348376 C68.6133995,22.097364 68.6410975,23.0598903 68.6808723,24.0216307 C68.7207784,24.9878253 68.7537271,25.954806 68.847979,26.9179874 C68.8566428,27.0072048 68.8310452,27.0344548 68.7438819,27.0330137 C68.5064144,27.0290834 68.2688157,27.0317036 68.0313483,27.0317036 C65.93431,27.0317036 63.8372717,27.0317036 61.7402335,27.0317036 C61.5519923,27.0317036 61.5492356,27.0313106 61.5614437,26.8421329 C61.6553018,25.3984089 61.6810307,23.9521957 61.7201491,22.5063755 C61.7756764,20.459746 61.7776454,18.4125924 61.778433,16.3655699 C61.7790894,14.7426249 61.781846,13.11968 61.7639933,11.496997 C61.7508663,10.302584 61.7129293,9.10830189 61.6727607,7.91441285 C61.6475568,7.16425279 61.6010872,6.41461677 61.5564554,5.66524276 C61.5480542,5.52322853 61.5904544,5.48785598 61.7296006,5.48982112 C62.6492782,5.50318408 63.5677744,5.45785481 64.4845641,5.39470826 C65.5513954,5.32121197 66.6154701,5.21129505 67.6798072,5.10688052 C68.6287581,5.01386382 69.5783653,4.92700456 70.5315168,4.8818063 C71.2936704,4.84564769 72.0556928,4.8138124 72.8182402,4.83372584 C74.2485581,4.87119454 75.6678494,4.99093716 77.0434278,5.4257575 C77.923068,5.70389055 78.7333978,6.10766164 79.430704,6.71672454 C80.0123614,7.22477915 80.4534286,7.84144059 80.7675577,8.54404423 C81.1679312,9.43975578 81.3572226,10.386954 81.4455673,11.3602232 C81.5391628,12.3927086 81.5020134,13.4261111 81.4863923,14.4587275 C81.4723464,15.3865363 81.4804851,16.3142142 81.4701148,17.2417611 C81.4552813,18.5631223 81.4852108,19.8840905 81.5080518,21.2047967 C81.5294488,22.4392986 81.5784125,23.6735386 81.62777,24.9073855 C81.654024,25.566363 81.7020689,26.2248164 81.7516889,26.8826148 C81.7612716,27.010218 81.7302919,27.0341928 81.6114926,27.0339307 C80.0853475,27.0305245 78.5593337,27.0317036 77.03332,27.0317036 C76.2349358,27.0317036 75.4365517,27.0289524 74.6382988,27.0344548 C74.5110981,27.0353719 74.460953,27.0144103 74.4705357,26.8718721 C74.557699,25.5894206 74.5827716,24.304349 74.6155891,23.0198015 C74.6407929,22.0319903 74.6434183,21.043655 74.6658655,20.0558439 C74.7028836,18.4221561 74.6971077,16.7882064 74.6776798,15.1547806 C74.6679658,14.3286351 74.6847684,13.5007864 74.621365,12.676082 C74.569382,11.9979771 74.4743425,11.3266848 74.1837108,10.6994116 C73.8287567,9.93274431 73.211,9.51233501 72.3977824,9.36193617 C71.2899948,9.15703741 70.1975659,9.27127764 69.1160323,9.54888664 C69.0090473,9.57626762 68.9058691,9.62290698 68.7977026,9.6412483 C68.6768029,9.66155476 68.6480548,9.72326021 68.6464795,9.83697641 C68.6144497,12.0903388 68.5566909,14.3434392 68.5553782,16.9450247 Z M102.764671,14.5969427 C102.77684,15.1489522 102.745042,15.8453232 102.723058,16.5416942 C102.684062,17.7752923 102.618633,19.0082245 102.589845,20.2420889 C102.562888,21.404838 102.563412,22.5683862 102.598612,23.7315348 C102.615755,24.2999249 102.632897,24.8680485 102.668752,25.4355063 C102.70971,26.0838012 102.762315,26.7308975 102.871581,27.3714683 C102.890425,27.4818702 102.856271,27.5001151 102.758389,27.5010473 C101.686142,27.5110354 100.614287,27.5372709 99.5434787,27.5936038 C98.654301,27.6403482 97.766301,27.7129284 96.8772541,27.7640675 C95.882736,27.8213327 94.889003,27.8943125 93.8933072,27.9346644 C93.3146547,27.95797 92.7356096,27.9672923 92.1574805,27.9720866 C91.5195495,27.9772804 90.881095,27.944253 90.2444725,27.8728713 C89.4478112,27.7835111 88.6661984,27.6327572 87.9046069,27.3782602 C87.0405539,27.0895372 86.2533143,26.6612471 85.5869871,26.0248048 C84.7286918,25.2049807 84.2394151,24.177404 84.0012541,23.0195824 C83.7960693,22.0213042 83.7271074,21.0118392 83.8490667,19.9963815 C84.0136856,18.6265455 84.5881507,17.4732518 85.6208792,16.5638012 C86.4846706,15.8031068 87.4969853,15.3332661 88.5727661,14.9887429 C89.4610278,14.7042816 90.3733673,14.5268927 91.2957829,14.4099653 C91.8443381,14.340448 92.3957723,14.2859795 92.947599,14.255882 C93.6309376,14.2184599 94.3157157,14.2092709 95.0001012,14.1958202 C95.2714999,14.1904932 95.5434221,14.2056751 95.8149518,14.2133993 C95.8815583,14.2152637 95.928667,14.2143315 95.9290596,14.1205765 C95.9318076,13.2853042 95.9119173,12.4525622 95.6923381,11.6393969 C95.3888792,10.5159344 94.667461,9.84726373 93.5566105,9.59316623 C92.8122922,9.42296885 92.0606458,9.41098312 91.3049429,9.45945874 C90.4851197,9.51206278 89.6833549,9.66827681 88.8923205,9.89214364 C87.9518465,10.1584932 87.0433019,10.5063458 86.1746688,10.9608713 C85.9960481,11.05436 86.0008899,11.0531615 85.9901595,10.8506026 C85.9459296,10.0121341 85.8973815,9.17393199 85.851843,8.3354635 C85.8271109,7.88027206 85.8051268,7.42508062 85.7822267,6.969756 C85.7711038,6.74988442 85.7677015,6.52934697 85.7478112,6.31027444 C85.7356414,6.17590107 85.7806564,6.11317574 85.9064106,6.06576552 C86.7047731,5.76425779 87.5256432,5.54931367 88.3609075,5.38737313 C89.4237334,5.1814849 90.4958501,5.05496885 91.5754257,4.98079049 C92.6368121,4.9078107 93.6988527,4.89595815 94.7602391,4.93604376 C95.9227785,4.97999144 97.075896,5.1148975 98.1980004,5.45063115 C99.2307289,5.75972985 100.171465,6.2391591 100.935804,7.02622212 C101.509222,7.61698549 101.910955,8.32108062 102.18785,9.10055268 C102.474821,9.90825779 102.626223,10.7440628 102.70356,11.5970473 C102.789795,12.5475158 102.79817,13.4990497 102.764671,14.5969427 Z M95.8162603,20.4005669 C95.8162603,19.6936751 95.8157369,18.9867834 95.816522,18.2800247 C95.8169146,17.9746549 95.8179615,17.9778511 95.5080906,17.9699938 C94.9439632,17.9556109 94.3800976,17.9734564 93.8191109,18.0268595 C93.1466334,18.0909165 92.4871109,18.22236 91.8796697,18.5454421 C91.2427855,18.8839724 90.8031038,19.3871068 90.6277546,20.1085146 C90.4951958,20.6538654 90.5004301,21.2018797 90.6007979,21.7516252 C90.6824531,22.1993589 90.8524372,22.601014 91.1773567,22.9252946 C91.5912594,23.3382697 92.113774,23.5027405 92.6649464,23.5972946 C93.2736962,23.7017037 93.887026,23.7030354 94.5006175,23.6557584 C94.9215866,23.6232637 95.3404619,23.5707929 95.7521401,23.4709118 C95.81469,23.4557298 95.8734451,23.4506692 95.8659862,23.3490568 C95.7940145,22.3675586 95.8106334,21.3836633 95.8162603,20.4005669 Z M12.0690788,20.8392847 C12.0730254,19.7906663 12.0751303,19.0478174 12.0922323,18.3049684 C12.1007832,17.9323453 12.181031,17.9946711 11.7793976,17.9736295 C11.2434478,17.9455296 10.707498,17.9789565 10.1727322,18.020507 C9.52456715,18.0709803 8.89034677,18.1908376 8.29454006,18.4629137 C7.68939304,18.7393845 7.21119535,19.1574202 6.96821566,19.8007876 C6.72273646,20.4508138 6.72484132,21.1205498 6.85297462,21.794947 C7.00241963,22.5816105 7.44115121,23.1244309 8.18692913,23.4044975 C8.63671123,23.5733631 9.10491085,23.6386188 9.58192456,23.6660528 C10.3944002,23.7130635 11.1963516,23.6458102 11.9925146,23.4797413 C12.1051245,23.4561693 12.1401178,23.4150183 12.1331455,23.2984904 C12.0777613,22.3777199 12.0647375,21.4558839 12.0690788,20.8392847 Z M46.659748,16.0402116 C46.6811085,14.484545 46.7019415,12.9287464 46.724225,11.3730798 C46.7273895,11.144519 46.7304221,10.9155619 46.7455854,10.6875296 C46.7537604,10.563869 46.7227746,10.5246305 46.5914473,10.5258196 C45.8655871,10.5328217 45.139727,10.5258196 44.4139987,10.5321611 C44.2809573,10.5333502 44.2441699,10.5007175 44.2448291,10.3630526 C44.250367,9.24442595 44.2493122,8.12553508 44.2429832,7.00690844 C44.2421921,6.8782274 44.2804299,6.83344006 44.4049008,6.81164091 C45.2984801,6.65455492 46.1539534,6.38966223 46.9287316,5.89924744 C47.6123982,5.46656736 48.1395533,4.88657787 48.5353811,4.18623067 C49.0780951,3.22574695 49.3516936,2.17423527 49.5474978,1.09881058 C49.6073599,0.770105837 49.6539046,0.438758771 49.7009767,0.107940169 C49.7128436,0.0239143585 49.7487081,0.000133468611 49.829535,0.000265584666 C51.1391159,0.00224732549 52.4486968,0.0025115576 53.7581459,1.35255609e-06 C53.8546635,-0.000262879554 53.8609926,0.0381828924 53.8543998,0.119566382 C53.8141841,0.62028623 53.7772648,1.12140243 53.7432463,1.62265074 C53.6730996,2.65711945 53.6307742,3.6927772 53.599261,4.72896342 C53.5893719,5.05423315 53.5960965,5.37989922 53.5856799,5.70503684 C53.5815924,5.83675654 53.665452,5.80716255 53.7357306,5.80716255 C54.9336306,5.80782313 56.1313987,5.80769101 57.3292986,5.80769101 C57.4917436,5.80769101 57.654716,5.81548586 57.8163699,5.80504869 C57.9354347,5.79738596 57.958773,5.84190907 57.9581137,5.95235809 C57.9534988,6.63302 57.9563996,7.31368192 57.9563996,7.99434383 C57.9562677,8.78624747 57.9507298,9.57828322 57.959696,10.3700547 C57.9612782,10.5177605 57.9099867,10.5318969 57.7867026,10.5316327 C56.4213472,10.5278013 55.0559917,10.5313684 53.6906363,10.5259517 C53.5471784,10.5252911 53.5082812,10.5543566 53.5089405,10.7072149 C53.5159288,12.5183939 53.5140828,14.3295729 53.5134236,16.1407519 C53.5128961,17.3743195 53.4937772,18.6081513 53.5334655,19.8413226 C53.552057,20.4195946 53.6152154,20.9941673 53.7801656,21.5528861 C54.0368867,22.4219455 54.6028071,22.9364054 55.503111,23.073674 C56.377044,23.206847 57.2306713,23.1529436 58.0531809,22.8042894 C58.1272833,22.7728457 58.1991441,22.7346642 58.2684997,22.6937082 C58.3422064,22.6501099 58.3702915,22.6555267 58.3758294,22.7519714 C58.4010136,23.1982594 58.4337136,23.6441511 58.4621942,24.0901749 C58.511376,24.8605436 58.559503,25.6310445 58.60763,26.4015453 C58.6281993,26.7309106 58.6452086,27.0606723 58.669338,27.3897734 C58.675667,27.4759131 58.6382203,27.5073567 58.5639861,27.5257208 C57.9140742,27.6871666 57.2540096,27.7871785 56.5895938,27.8623525 C55.8028167,27.9512666 55.0131389,27.9934116 54.2221426,27.9993569 C52.836086,28.009794 51.46572,27.897099 50.1627319,27.3740516 C48.5595106,26.7305143 47.5219459,25.5641937 47.0176017,23.9135358 C46.8374881,23.3240339 46.7339822,22.7215847 46.6809766,22.1081699 C46.5814263,20.9557215 46.6420795,19.8015557 46.6348275,18.6481825 C46.6292896,17.7788589 46.6337726,16.9095352 46.6337726,16.0402116 C46.6423432,16.0402116 46.6510456,16.0402116 46.659748,16.0402116 Z" id="Combined-Shape"></path>
                    </g>
                </g>
            </g>
        </g>
    </g>
</svg>

<svg width="103" height="28" xmlns="http://www.w3.org/2000/svg"><path d="M31.815 14.525c.39-.008.778.004 1.168-.027.715-.056 1.413-.174 2.063-.497.483-.24.873-.583 1.129-1.072.286-.547.347-1.135.327-1.74a2.11 2.11 0 0 0-1.559-1.997 4.126 4.126 0 0 0-1.683-.09 3.024 3.024 0 0 0-1.823.91c-.492.51-.773 1.142-.96 1.82-.221.803-.272 1.628-.3 2.458-.005.164.055.199.196.202.48.01.96.045 1.442.033m-29.58-3.486c-.063-.273-.044-.537-.06-.796-.055-.874-.09-1.75-.135-2.624-.023-.45-.05-.9-.081-1.35-.007-.096.017-.143.112-.18.918-.359 1.87-.585 2.835-.762.866-.159 1.74-.26 2.616-.33a30.353 30.353 0 0 1 3.551-.06c.9.034 1.794.131 2.677.326.95.209 1.857.527 2.67 1.082.887.606 1.523 1.42 1.939 2.418.355.852.534 1.743.636 2.657.1.894.093 1.79.084 2.686-.002.146.043.173.176.172 1.073-.012 2.145.028 3.218.066.126.004.253.011.378.027.105.013.145-.03.154-.13.05-.526.137-1.045.246-1.56.292-1.386.75-2.704 1.546-3.884a7.64 7.64 0 0 1 1.781-1.87c1.06-.79 2.253-1.268 3.524-1.568 1.247-.294 2.514-.399 3.792-.413 1.17-.013 2.334.058 3.485.286 1.073.213 2.1.554 3.038 1.138 1.505.937 2.405 2.285 2.67 4.058.172 1.14.104 2.267-.255 3.365a5.19 5.19 0 0 1-1.771 2.51c-.927.728-1.991 1.151-3.114 1.442-1.011.261-2.041.396-3.082.467-1.507.103-3.015.055-4.523.014-.08-.003-.12-.003-.12.095-.004.887.14 1.743.545 2.537a4.317 4.317 0 0 0 1.86 1.875c.837.449 1.738.645 2.674.714 1.73.127 3.391-.188 5.002-.812.48-.186.946-.41 1.392-.672.1-.06.143-.075.15.08.055 1.146.119 2.29.18 3.436.022.41.041.819.074 1.227.009.114-.063.125-.129.154-.496.22-1.011.38-1.536.512-.973.243-1.96.395-2.957.5a27.347 27.347 0 0 1-3.821.106c-1.24-.045-2.47-.185-3.679-.483-1.14-.281-2.224-.703-3.204-1.369a7.504 7.504 0 0 1-2.187-2.288c-.698-1.13-1.104-2.369-1.365-3.664-.125-.622-.21-1.25-.268-1.88-.01-.105-.045-.123-.136-.127a73.86 73.86 0 0 0-3.217-.089c-.167-.001-.335-.001-.5-.016-.113-.01-.136.034-.138.135-.022.845-.045 1.69-.073 2.535-.034 1.055-.005 2.11.018 3.166.024 1.094.087 2.189.237 3.275.045.326.043.32-.29.327-1.26.026-2.519.055-3.777.141-.888.061-1.777.105-2.666.167a60.427 60.427 0 0 1-3.79.16c-1.591.011-3.162-.112-4.676-.656-.969-.348-1.824-.877-2.503-1.668-.633-.739-1.011-1.609-1.22-2.557a9.796 9.796 0 0 1-.212-2.549c.071-1.615.658-2.987 1.904-4.04.807-.681 1.736-1.126 2.727-1.453.909-.301 1.842-.489 2.788-.617 1.14-.154 2.286-.212 3.435-.226.405-.005.81.015 1.214.011.062 0 .116.01.118-.088.008-.82-.004-1.638-.219-2.437-.151-.563-.403-1.068-.848-1.459-.38-.333-.829-.52-1.31-.634-.752-.178-1.514-.183-2.279-.134-.83.054-1.642.211-2.442.438a14.13 14.13 0 0 0-2.674 1.047c-.057.03-.116.057-.19.093zm66.32 5.906c-.018 1.165.015 2.677.042 4.19.016.962.044 1.925.084 2.887.04.966.073 1.933.167 2.896.009.09-.017.116-.104.115-.238-.004-.475-.001-.713-.001h-6.29c-.189 0-.192 0-.18-.19.094-1.444.12-2.89.16-4.336.055-2.046.057-4.093.057-6.14.001-1.623.004-3.246-.014-4.869a158.293 158.293 0 0 0-.091-3.583c-.025-.75-.072-1.5-.117-2.249-.008-.142.034-.177.174-.175.92.013 1.838-.032 2.755-.095 1.066-.074 2.13-.184 3.195-.288.949-.093 1.898-.18 2.852-.225a31.112 31.112 0 0 1 2.286-.048c1.43.037 2.85.157 4.225.592.88.278 1.69.682 2.388 1.29a5.228 5.228 0 0 1 1.337 1.828c.4.896.59 1.843.678 2.816.093 1.033.056 2.066.04 3.099-.014.928-.006 1.855-.016 2.783-.015 1.321.015 2.642.038 3.963.021 1.234.07 2.469.12 3.702.026.66.074 1.318.124 1.976.01.127-.022.151-.14.15-1.527-.002-3.053-.001-4.579-.001-.798 0-1.596-.003-2.395.002-.127.001-.177-.02-.167-.162.087-1.283.112-2.568.145-3.852.025-.988.027-1.976.05-2.964.037-1.634.031-3.268.012-4.901-.01-.826.007-1.654-.057-2.479-.052-.678-.147-1.35-.437-1.977-.355-.766-.973-1.187-1.786-1.337-1.108-.205-2.2-.09-3.282.187-.107.027-.21.074-.318.092-.121.02-.15.082-.152.196-.032 2.253-.09 4.506-.09 7.108zm34.21-2.348c.012.552-.02 1.248-.042 1.945-.039 1.233-.104 2.466-.133 3.7a65.312 65.312 0 0 0 .009 3.49c.017.568.034 1.136.07 1.704.04.648.093 1.295.203 1.935.018.11-.016.13-.114.13-1.072.01-2.144.036-3.215.093-.889.046-1.777.119-2.666.17-.994.057-1.988.13-2.984.17-.578.024-1.157.033-1.736.038a15.995 15.995 0 0 1-1.913-.1c-.796-.088-1.578-.24-2.34-.494-.863-.288-1.65-.717-2.317-1.353-.858-.82-1.348-1.848-1.586-3.005-.205-.999-.274-2.008-.152-3.024.165-1.37.74-2.523 1.772-3.432.864-.76 1.876-1.23 2.952-1.575.888-.285 1.8-.462 2.723-.579.548-.07 1.1-.124 1.652-.154.683-.038 1.368-.047 2.052-.06.271-.006.543.01.815.017.067.002.114.001.114-.092.003-.836-.017-1.668-.237-2.482-.303-1.123-1.025-1.792-2.135-2.046-.745-.17-1.496-.182-2.252-.134-.82.053-1.622.21-2.413.433-.94.266-1.849.614-2.717 1.069-.179.093-.174.092-.185-.11-.044-.839-.093-1.677-.138-2.516-.025-.455-.047-.91-.07-1.365-.01-.22-.014-.44-.034-.66-.012-.134.033-.197.158-.244.799-.302 1.62-.517 2.455-.679a26.382 26.382 0 0 1 3.214-.406 29.933 29.933 0 0 1 3.185-.045c1.163.044 2.316.179 3.438.515 1.033.309 1.973.788 2.738 1.575.573.591.975 1.295 1.252 2.075.287.807.438 1.643.516 2.496.086.95.094 1.902.06 3zM95.816 20.4V18.28c0-.305.002-.302-.308-.31a14.042 14.042 0 0 0-1.689.057c-.672.064-1.332.195-1.94.518-.636.339-1.076.842-1.251 1.564a3.908 3.908 0 0 0-.027 1.643c.081.447.251.849.576 1.173.414.413.937.578 1.488.672.609.105 1.222.106 1.836.059.42-.033.84-.085 1.251-.185.063-.015.121-.02.114-.122-.072-.981-.055-1.965-.05-2.948zm-83.747.438c.004-1.048.006-1.791.023-2.534.009-.373.089-.31-.313-.331-.536-.028-1.072.005-1.606.047-.648.05-1.283.17-1.878.442-.606.276-1.084.694-1.327 1.338-.245.65-.243 1.32-.115 1.994.15.787.588 1.33 1.334 1.61.45.168.918.234 1.395.261a9.158 9.158 0 0 0 2.41-.186c.113-.024.148-.065.141-.182a38.627 38.627 0 0 1-.064-2.459zm34.59-4.799l.065-4.667c.003-.228.006-.457.022-.685.008-.124-.023-.163-.155-.162-.725.007-1.451 0-2.177.006-.133.001-.17-.031-.17-.169.006-1.119.005-2.237-.001-3.356 0-.129.037-.174.162-.195.893-.157 1.749-.422 2.524-.913a4.751 4.751 0 0 0 1.606-1.713c.543-.96.817-2.012 1.012-3.087.06-.329.107-.66.154-.991.012-.084.048-.108.129-.108 1.31.002 2.619.003 3.928 0 .097 0 .103.038.096.12a83.358 83.358 0 0 0-.255 4.61c-.01.324-.003.65-.013.975-.004.132.08.102.15.102h3.593c.163 0 .326.008.487-.002.12-.008.143.037.142.147-.005.681-.002 1.362-.002 2.042 0 .792-.005 1.584.004 2.376.001.148-.05.162-.173.162-1.366-.004-2.731 0-4.096-.006-.144 0-.183.028-.182.181.007 1.811.005 3.623.004 5.434 0 1.233-.02 2.467.02 3.7.02.579.082 1.153.247 1.712.257.869.823 1.383 1.723 1.52.874.134 1.728.08 2.55-.269a1.84 1.84 0 0 0 .215-.11c.074-.044.102-.038.108.058.025.446.058.892.086 1.338.05.77.098 1.541.146 2.312.02.329.037.659.061.988.007.086-.03.117-.105.136-.65.161-1.31.261-1.974.336a22.58 22.58 0 0 1-2.368.137c-1.386.01-2.756-.102-4.06-.625-1.602-.643-2.64-1.81-3.144-3.46a8.716 8.716 0 0 1-.337-1.806c-.1-1.152-.039-2.306-.046-3.46-.006-.87-.001-1.738-.001-2.608h.026z" fill="#744593" fill-rule="evenodd"/></svg>
